X:1
T:Down by The Salley Gardens
T:Down by The Salley Gardens
T:Ivor Gurney
T:W.B. Yeats
C:Ivor Gurney
Z:W.B. Yeats
%%score 1 { ( 2 5 ) | ( 3 4 6 ) }
L:1/8
Q:1/4=82
M:3/4
K:Ab
V:1 treble nm="Voice"
V:2 treble nm="Piano"
V:5 treble 
V:3 bass 
V:4 bass 
V:6 bass 
V:1
"^Poco Andante" z6 |!pp! (E2 D E F G | E2) A2 (3((Bc)d | e3 c (3(dc) B | A4) (B2 | c3 e c B | %6
w: |Down by the Sal- ley|gar- dens my _ _|love and I _ did|meet; She|passed the sal- ley|
 A2 B2 c2 | B E E2 D2 | E4) ((Bc) | d3 B c e | d2 A2) (3((Bc) d | c G F2 E2 | A4) (G F | %13
w: gar- dens with|lit- tle snow- white|feet. She *|bid me take life|ea- sy, as _ the|leaves grow on the|tree; But I,|
 E F A2 B2 | (c2 ec) (3(de) f | e G G2 F2 | d4) ((cB) | c F F2 E2 | A6- | A2) z2 z2 | z6 | z6 | %22
w: be- ing young and|fool- * * ish, _ with|her would not a-|gree, With _|her would not a-|gree,|_|||
 z2 z2!p! (E E | E2 D(EF) G | E2 A2) (3(Bcd | e3 c (3(dc) B | A4) (B2 | c3 e c B | A2 B2 c2 | %29
w: In a|field by _ _ the|ri- ver my _ _|love and I _ did|stand, And|on my lea- ning|shoul- der she|
 B E E2 D2 | E4) ((Bc) | d3 B c e | d2 A2) (3((Bc) d | c G F2 E2 | A4) ((GF) | E F A2 B2 | %36
w: laid her snow- white|hand. She _|bid me take life|ea- sy, as _ the|grass grows on the|weirs; But _|I was young and|
 c2 ec) (3(de) (f | e G G2 F2 | d4)[Q:1/4=72]"^T" ((cB) | c F F4- | F2 E4 | %41
w: fool- * * ish, _ and|now am full of|tears, And _|now am full|_ of|
 A6-)[Q:1/4=82]"^a tempo" | A2 z2 z2 | z6 | z6[Q:1/4=72]"^rit." | z6 | z6 | z6 | z6 |] %49
w: tears.|_|||||||
V:2
!pp! ([CE]2 [B,D][CE] [DF][B,G]) | ([CE]2 [B,D][CE] F2) | [CE]4 [B,DA]2 | %3
 ([A,-C-A]2 [A,CE]2) [A,F]2 | (([A,-B,D]2 [A,CE]2)) [G,B,E-]2 | [A,CE]4 [A,A]2- | [A,A]4 [CE-]2 | %7
 [B,E]4 (([A,D]2 | B,4)) (B2 | d4 c2 | [DA]4 [DAd]2 | [Gc]2 F2 [EG]2) | (G2 F2) G2 | E4 (E2- | %14
 E2- A2 [DAd]2 | e4) (d2- | d2 GF G2- | G2 F2 ED | D2 CEG[DF]) |!<(! EFABce!<)! | fecB (AG | %21
 FEFA d2- | d2 c2 B2 | A2) ([DF]2 D2 | E4) (A2- | A4 F2 | [DF]2 EA[EG][DF] | %27
 [CE]2- [CEA]2 [CFc]2- | [C-Fc]2 B2 A2 | B4 [B,A]2) | (A2 GA B2) | A4 [CEA]2 | [B,FA]4- [B,FA] z | %33
 ((G2 [Gc]2)) (cB | A2 e2) [Dd]2 | [Ee]3 (EGB | [CAc]e [Aa]2) (3agf | e3 (CDF) | (FAdF) G2 | %39
"_colla voce" [G,CG]4 (F2- | F2 E2 D2 | D2 C)(AGF | EFABec | [Dd]2 [Ee]2 [Ff]2) | (eGFE [DF-d-]2 | %45
 [Ad]2!>(! c2 B2) | [Cc]6!>)! |!pp! C6 | !fermata!C6 |] %49
V:3
 E,2 F,E, D,2 | E,2 F,E, D,2 | [A,,E,]4 F,2 | E,2- E,2 ([A,,D,]2 | [A,,F,]2) E,2 [E,,B,,E,-]2 | %5
 [A,,E,]4 [F,,C,]2- | [F,,C,]4 [A,,E,]2- | [A,,E,]4 [F,,-A,,]2 | [F,,B,,]4 ([E,B,]2 | %9
 [B,,B,]4) ([E,C]2 | [F,A,]4) ([F,B,]2 | [E,A,]4 [D,B,]2 | [C,A,]4 [B,,G,]2) | [C,A,]4 B,2 | %14
 [A,C]2- [A,C]2 [F,A,]2 | [C,A,]4 [C,A,]2- | [C,A,]2 [B,,D]2 CB, | [E,A,-]2 [D,A,]2 G,2 | %18
 [A,,E,A,]4 D,2 | [C,A,]3 [E,B,] A,C | DCA,G, F,2- | F,2 [B,,F,]4- | F,2 E,4- | E,2 F,2 G,2 | %24
 [C,A,]4 [F,A,-]2 | [E,A,]4 D,2 | F,2 E,2 E,2- | E,2 A,,2 [F,,F,]2- | [F,,F,]2 G,,2 A,,2 | %29
 [G,,E,G,]4 F,2 | E,4 [E,B,]2 | F,4 E,2 | D,4- D, z | [E,G,]4 [D,G,]2 | [C,A,]4 [B,,G,]2 | %35
 [C,E,]3 C, [B,,D,]2 | [A,,E,]2 C2 D2 | [C,G,]3 E, [F,A,]2 | [B,,A,]2 B,2 [E,G,]2 | [A,,E,]4 F,2- | %40
 F,2 G,4 | [E,A,]4 [B,,G,]2 | (C,D,F,G,) [A,C]2 | A,4 [D,A,-]2 | [E,A,]4 (F,A, | D2) E,4 | %46
 [A,,E,]6 | E,6 | E,6 |] %49
V:4
 A,,6 | A,,6 | x6 | x6 | x6 | x6 | x6 | x6 | x6 | x6 | x6 | x6 | x6 | x4 [E,G,]2 | x6 | x6 | %16
 x4 E,2- | x4 D,2 | x6 | x6 | x6 | x6 | B,,F, E,4 | A,,2 A,,2 B,,2 | x6 | x6 | A,,4 x2 | x6 | %28
 x2 C,4 | x6 | x6 | x6 | x6 | x6 | x6 | x6 | x4 (3F,E,D, | x6 | x6 | x4 [D,,A,,]2- | %40
 [D,,A,,]2 C,,2 B,,,2 | A,,,4 x2 | A,2 x4 | F,2- F,E, x2 | x4 B,,2 | x6 | x6 | [E,,A,,]6 | %48
 !fermata![A,,,E,,A,,]6 |] %49
V:5
 x6 | x4 DG, | x6 | x6 | x6 | x6 | x6 | x6 | A,2 G,2 G2 | D4 G2 | x6 | C4 x2 | E4 D2 | x6 | %14
 x2 E2 x2 | E4 F2- | F2 x2 ED | C2- C2 B,2 | x4 E2 | E3 G A2- | A2 x2 A,2- | A,2 D4- | D2 [EG]4 | %23
 C2 x4 | x4 D2 | C4 A,2 | x2 C2 x2 | x6 | x2 [CF]2 C2 | B,4 x2 | [B,E]4 G2 | D4 x2 | x6 | C4 E2 | %34
 [EA]4 x2 | x4 [DG]2 | x4 A2 | E3 x D2 | D4 (CB,) | x6 | x6 | x4 D2 | E4 [EA]2 | A6 | [EG]2 x4 | %45
 F2 [EG]4 | x6 | x6 | x6 |] %49
V:6
 x6 | x6 | x6 | x6 | x6 | x6 | x6 | x6 | x6 | x6 | x6 | x6 | x6 | x6 | x6 | x6 | x6 | x6 | x6 | %19
 x6 | x6 | x6 | x6 | x6 | x6 | x6 | x6 | x6 | x4 F,2 | x6 | x6 | x6 | x6 | x6 | x6 | x6 | x6 | x6 | %38
 x6 | x6 | x2 G,,4 | x6 | x6 | x6 | x6 | x6 | x6 | x6 | x6 |] %49

